X:39
T:Green Gates
M:4/4
L:1/8
R:reel
K:G
GBdg egdB | GBdg e2dB | eAA2 eAA2 | (3B^cd ef gedB |
GBdg egdB | GBdg e2dB | cBcd efge | dBAB G4 ::
dgg2 bgg2 | dgg2 egdB | eAA2 eAA2 | (3B^cd ef gedB |
dgg2 bgg2 | dgg2 egdB | cBcd efge | dBAB G4 :|
